Design/Resources/Bible.svg

<?xml version="1.0" encoding="UTF-8" standalone="no"?>
<svg
   xmlns:dc="http://purl.org/dc/elements/1.1/"
   xmlns:cc="http://creativecommons.org/ns#"
   xmlns:rdf="http://www.w3.org/1999/02/22-rdf-syntax-ns#"
   xmlns:svg="http://www.w3.org/2000/svg"
   xmlns="http://www.w3.org/2000/svg"
   xmlns:sodipodi="http://sodipodi.sourceforge.net/DTD/sodipodi-0.dtd"
   xmlns:inkscape="http://www.inkscape.org/namespaces/inkscape"
   version="1.1"
   id="Your_Icon"
   x="0px"
   y="0px"
   viewBox="0 0 81.976746 100"
   enable-background="new 0 0 100 100"
   xml:space="preserve"
   height="100"
   width="81.976746"
   inkscape:version="0.91 r13725"
   sodipodi:docname="Bible.svg"><metadata
     id="metadata21"><rdf:RDF><cc:Work
         rdf:about=""><dc:format>image/svg+xml</dc:format><dc:type
           rdf:resource="http://purl.org/dc/dcmitype/StillImage" /><dc:title></dc:title></cc:Work></rdf:RDF></metadata><defs
     id="defs19" /><sodipodi:namedview
     pagecolor="#ffffff"
     bordercolor="#666666"
     borderopacity="1"
     objecttolerance="10"
     gridtolerance="10"
     guidetolerance="10"
     inkscape:pageopacity="0"
     inkscape:pageshadow="2"
     inkscape:window-width="1024"
     inkscape:window-height="1217"
     id="namedview17"
     showgrid="false"
     fit-margin-top="0"
     fit-margin-left="0"
     fit-margin-right="0"
     fit-margin-bottom="0"
     inkscape:zoom="2.36"
     inkscape:cx="34.7"
     inkscape:cy="43.999996"
     inkscape:window-x="-8"
     inkscape:window-y="-8"
     inkscape:window-maximized="1"
     inkscape:current-layer="Your_Icon" /><g
     id="g4149"
     transform="matrix(1.1627907,0,0,1.1627907,-17.790698,-9.3023256)"><path
       id="path3"
       d="M 85.7,94 28.2,94 C 21.1,94 15.3,88.2 15.3,81.1 l 0,-60.2 8.6,0 0,60.2 c 0,2.4 1.9,4.3 4.3,4.3 l 49,0 0,-55.9 8.6,0 0,64.5 z"
       inkscape:connector-curvature="0"
       style="fill:#000000" /><path
       id="path5"
       d="m 81.4,33.8 -53.2,0 C 21.1,33.8 15.3,28 15.3,20.9 l 8.6,0 c 0,2.4 1.9,4.3 4.3,4.3 l 53.3,0 0,8.6 z"
       inkscape:connector-curvature="0"
       style="fill:#000000" /><path
       id="path7"
       d="m 23.9,20.9 -8.6,0 C 15.3,13.8 21.1,8 28.2,8 l 57.6,0 0,8.6 -57.6,0 c -2.4,0 -4.3,1.9 -4.3,4.3 z"
       inkscape:connector-curvature="0"
       style="fill:#000000" /><g
       id="g9"><path
         id="path11"
         d="m 50.5,76.3 c -2.4,0 -4.3,-1.9 -4.3,-4.3 l 0,-25.1 c 0,-2.4 1.9,-4.3 4.3,-4.3 2.4,0 4.3,1.9 4.3,4.3 l 0,25.1 c 0,2.4 -1.9,4.3 -4.3,4.3 z"
         inkscape:connector-curvature="0"
         style="fill:#000000" /><path
         id="path13"
         d="m 58.7,60.2 -16.4,0 c -2.4,0 -4.3,-1.9 -4.3,-4.3 0,-2.4 1.9,-4.3 4.3,-4.3 l 16.5,0 c 2.4,0 4.3,1.9 4.3,4.3 -0.1,2.4 -2,4.3 -4.4,4.3 z"
         inkscape:connector-curvature="0"
         style="fill:#000000" /></g><path
       id="path15"
       d="M 85.7,33.8 C 78.6,33.8 72.8,28 72.8,20.9 72.8,13.8 78.6,8 85.7,8 l 0,8.6 c -2.4,0 -4.3,1.9 -4.3,4.3 0,2.4 1.9,4.3 4.3,4.3 l 0,8.6 z"
       inkscape:connector-curvature="0"
       style="fill:#000000" /></g></svg>

<svg xmlns="http://www.w3.org/2000/svg" xmlns:xlink="http://www.w3.org/1999/xlink" version="1.1" id="Your_Icon" x="0px" y="0px" viewBox="0 0 100 100" enable-background="new 0 0 100 100" xml:space="preserve" height="100px" width="100px">
<path fill="#000000" d="M85.7,94H28.2c-7.1,0-12.9-5.8-12.9-12.9V20.9h8.6v60.2c0,2.4,1.9,4.3,4.3,4.3h49V29.5h8.6V94z"/>
<path fill="#000000" d="M81.4,33.8H28.2c-7.1,0-12.9-5.8-12.9-12.9h8.6c0,2.4,1.9,4.3,4.3,4.3h53.3V33.8z"/>
<path fill="#000000" d="M23.9,20.9h-8.6C15.3,13.8,21.1,8,28.2,8h57.6v8.6H28.2C25.8,16.6,23.9,18.5,23.9,20.9z"/>
<g>
	<path fill="#000000" d="M50.5,76.3c-2.4,0-4.3-1.9-4.3-4.3V46.9c0-2.4,1.9-4.3,4.3-4.3c2.4,0,4.3,1.9,4.3,4.3V72   C54.8,74.4,52.9,76.3,50.5,76.3z"/>
	<path fill="#000000" d="M58.7,60.2H42.3c-2.4,0-4.3-1.9-4.3-4.3c0-2.4,1.9-4.3,4.3-4.3h16.5c2.4,0,4.3,1.9,4.3,4.3   C63,58.3,61.1,60.2,58.7,60.2z"/>
</g>
<path fill="#000000" d="M85.7,33.8c-7.1,0-12.9-5.8-12.9-12.9S78.6,8,85.7,8v8.6c-2.4,0-4.3,1.9-4.3,4.3s1.9,4.3,4.3,4.3V33.8z"/>
</svg>
